img/icons/icon-attention.svg

<svg width="48" height="41" viewBox="0 0 48 41" fill="none" xmlns="http://www.w3.org/2000/svg">
<path fill-rule="evenodd" clip-rule="evenodd" d="M47.1579 40.7273L23.5789 0L0 40.7273H47.1579ZM25.7226 34.2969H21.4355V30.0098H25.7226V34.2969ZM21.4355 25.7225H25.7226V17.1483H21.4355V25.7225Z" fill="#006251"/>
</svg>

<svg width="48" height="41" fill="none" xmlns="http://www.w3.org/2000/svg"><path fill-rule="evenodd" clip-rule="evenodd" d="M47.158 40.727L23.578 0 0 40.727h47.158zm-21.435-6.43h-4.287V30.01h4.287v4.287zm-4.287-8.574h4.287v-8.575h-4.287v8.575z" fill="#006251"/></svg>
